svg/transport/bus_2_line.svg

<?xml version="1.0" encoding="UTF-8"?>
<svg width="24px" height="24px" viewBox="0 0 24 24" version="1.1" xmlns="http://www.w3.org/2000/svg" xmlns:xlink="http://www.w3.org/1999/xlink">
    <title>bus_2_line</title>
    <g id="Icon" stroke="none" stroke-width="1" fill="none" fill-rule="evenodd">
        <g id="Transport" transform="translate(-144.000000, 0.000000)">
            <g id="bus_2_line" transform="translate(144.000000, 0.000000)">
                <path d="M24,0 L24,24 L0,24 L0,0 L24,0 Z M12.5934901,23.257841 L12.5819402,23.2595131 L12.5108777,23.2950439 L12.4918791,23.2987469 L12.4918791,23.2987469 L12.4767152,23.2950439 L12.4056548,23.2595131 C12.3958229,23.2563662 12.3870493,23.2590235 12.3821421,23.2649074 L12.3780323,23.275831 L12.360941,23.7031097 L12.3658947,23.7234994 L12.3769048,23.7357139 L12.4804777,23.8096931 L12.4953491,23.8136134 L12.4953491,23.8136134 L12.5071152,23.8096931 L12.6106902,23.7357139 L12.6232938,23.7196733 L12.6232938,23.7196733 L12.6266527,23.7031097 L12.609561,23.275831 C12.6075724,23.2657013 12.6010112,23.2592993 12.5934901,23.257841 L12.5934901,23.257841 Z M12.8583906,23.1452862 L12.8445485,23.1473072 L12.6598443,23.2396597 L12.6498822,23.2499052 L12.6498822,23.2499052 L12.6471943,23.2611114 L12.6650943,23.6906389 L12.6699349,23.7034178 L12.6699349,23.7034178 L12.678386,23.7104931 L12.8793402,23.8032389 C12.8914285,23.8068999 12.9022333,23.8029875 12.9078286,23.7952264 L12.9118235,23.7811639 L12.8776777,23.1665331 C12.8752882,23.1545897 12.8674102,23.1470016 12.8583906,23.1452862 L12.8583906,23.1452862 Z M12.1430473,23.1473072 C12.1332178,23.1423925 12.1221763,23.1452606 12.1156365,23.1525954 L12.1099173,23.1665331 L12.0757714,23.7811639 C12.0751323,23.7926639 12.0828099,23.8018602 12.0926481,23.8045676 L12.108256,23.8032389 L12.3092106,23.7104931 L12.3186497,23.7024347 L12.3186497,23.7024347 L12.3225043,23.6906389 L12.340401,23.2611114 L12.337245,23.2485176 L12.337245,23.2485176 L12.3277531,23.2396597 L12.1430473,23.1473072 Z" id="MingCute"></path>
                <path d="M18.9296,5 C19.8658267,5 20.7442116,5.436688 21.3095423,6.17347378 L21.4258,6.3359 L22.4962,7.94145 C22.7836375,8.37265 22.9537812,8.86986984 22.991826,9.38421193 L23,9.60555 L23,16 C23,17.0543909 22.18415,17.9181678 21.1492661,17.9945144 L21,18 L20.8293,18 C20.4175,19.1652 19.3062,20 18,20 C16.75911,20 15.6941172,19.246593 15.2376532,18.172239 L15.1707,18 L8.82929,18 C8.41746,19.1652 7.30622,20 6,20 C4.759091,20 3.69415145,19.246593 3.23766702,18.172239 L3.17071,18 L3,18 C1.94563773,18 1.08183483,17.18415 1.00548573,16.1492661 L1,16 L1,8 C1,6.40232321 2.24892392,5.09633941 3.82372764,5.00509271 L4,5 L18.9296,5 Z M18,16 C17.4477,16 17,16.4477 17,17 C17,17.5523 17.4477,18 18,18 C18.5523,18 19,17.5523 19,17 C19,16.4477 18.5523,16 18,16 Z M6,16 C5.44772,16 5,16.4477 5,17 C5,17.5523 5.44772,18 6,18 C6.55228,18 7,17.5523 7,17 C7,16.4477 6.55228,16 6,16 Z M16.2676,12 L3,12 L3,16 L3.17071,16 C3.58254,14.8348 4.69378,14 6,14 C7.30622,14 8.41746,14.8348 8.82929,16 L15.1707,16 C15.5825,14.8348 16.6938,14 18,14 C19.3062,14 20.4175,14.8348 20.8293,16 L21,16 L21,13 L18,13 C17.2597,13 16.6134,12.5978 16.2676,12 Z M18.9296,7 L18,7 L18,11 L21,11 L21,9.60555 C21,9.40813 20.9416,9.21512 20.8321,9.05085 L19.7617,7.4453 C19.5762,7.1671 19.264,7 18.9296,7 Z M6,7 L4,7 C3.48716857,7 3.06449347,7.38604429 3.0067278,7.88337975 L3,8 L3,10 L6,10 L6,7 Z M11,7 L8,7 L8,10 L11,10 L11,7 Z M16,7 L13,7 L13,10 L16,10 L16,7 Z" id="形状" fill="#09244B"></path>
            </g>
        </g>
    </g>
</svg>

<svg xmlns="http://www.w3.org/2000/svg" width="24" height="24"><g fill="none" fill-rule="evenodd"><path d="M24 0v24H0V0h24ZM12.593 23.258l-.011.002-.071.035-.02.004-.014-.004-.071-.035c-.01-.004-.019-.001-.024.005l-.004.01-.017.428.005.02.01.013.104.074.015.004.012-.004.104-.074.012-.016.004-.017-.017-.427c-.002-.01-.009-.017-.017-.018Zm.265-.113-.013.002-.185.093-.01.01-.003.011.018.43.005.012.008.007.201.093c.012.004.023 0 .029-.008l.004-.014-.034-.614c-.003-.012-.01-.02-.02-.022Zm-.715.002a.023.023 0 0 0-.027.006l-.006.014-.034.614c0 .012.007.02.017.024l.015-.002.201-.093.01-.008.004-.011.017-.43-.003-.012-.01-.01-.184-.092Z"/><path fill="#09244B" d="M18.93 5a3 3 0 0 1 2.38 1.173l.116.163 1.07 1.605a3 3 0 0 1 .496 1.443l.008.222V16a2 2 0 0 1-1.85 1.995L21 18h-.17a3.001 3.001 0 0 1-5.592.172L15.17 18H8.829a3.001 3.001 0 0 1-5.591.172L3.17 18H3a2 2 0 0 1-1.995-1.85L1 16V8a3 3 0 0 1 2.824-2.995L4 5h14.93ZM18 16a1 1 0 1 0 0 2 1 1 0 0 0 0-2ZM6 16a1 1 0 1 0 0 2 1 1 0 0 0 0-2Zm10.268-4H3v4h.17a3.001 3.001 0 0 1 5.66 0h6.34a3.001 3.001 0 0 1 5.66 0H21v-3h-3a2 2 0 0 1-1.732-1Zm2.662-5H18v4h3V9.606a1 1 0 0 0-.168-.555l-1.07-1.606A1 1 0 0 0 18.93 7ZM6 7H4a1 1 0 0 0-.993.883L3 8v2h3V7Zm5 0H8v3h3V7Zm5 0h-3v3h3V7Z"/></g></svg>
